build/service/GreaterOrEqualOutline.svg

<svg xmlns="http://www.w3.org/2000/svg" fill="none" viewBox="0 0 24 24" focusable="false"><path d="M0 0H24V24H0z"/><path fill="#74767B" fill-rule="evenodd" d="M9.64817 14.4222C9.46817 14.4222 9.29817 14.3522 9.16817 14.2122C8.92817 13.9422 8.94817 13.5322 9.20817 13.2922L12.7013 10.146L9.21207 7.12817C8.94207 6.88818 8.93207 6.47818 9.17207 6.20817C9.41207 5.94818 9.82207 5.92817 10.0921 6.16817L14.0713 9.62598C14.3813 9.90598 14.3813 10.386 14.0713 10.666L10.0882 14.2522C9.95817 14.3722 9.80817 14.4222 9.64817 14.4222ZM15.4868 11.9938C15.2465 11.727 14.8356 11.7055 14.5688 11.9457L10.9189 15.232C10.6521 15.4723 10.6306 15.8832 10.8708 16.15C11.111 16.4168 11.522 16.4383 11.7887 16.1981L15.4386 12.9118C15.7054 12.6715 15.727 12.2605 15.4868 11.9938Z"/></svg>

<svg xmlns="http://www.w3.org/2000/svg" fill="none" viewBox="0 0 24 24" focusable="false"><path fill="#74767B" fill-rule="evenodd" d="M9.64 14.42c-.18 0-.35-.07-.48-.21a.66.66 0 0 1 .04-.92l3.5-3.15-3.49-3.02a.65.65 0 0 1-.04-.92c.24-.26.65-.28.92-.04l3.98 3.46c.31.28.31.76 0 1.04l-3.99 3.59c-.13.12-.28.17-.44.17m5.84-2.43a.65.65 0 0 0-.92-.05l-3.65 3.29c-.26.24-.28.65-.04.92.24.26.65.28.91.04l3.65-3.28a.65.65 0 0 0 .05-.92"/></svg>
